src/components/ProtocolIcon/bitcoin.svg

<svg width="16" height="16" viewBox="0 0 16 16" fill="none" xmlns="http://www.w3.org/2000/svg">
<path fill-rule="evenodd" clip-rule="evenodd" d="M6.064 15.7605C10.3507 16.8292 14.6919 14.221 15.7605 9.9353C16.8291 5.64934 14.2209 1.30789 9.93441 0.239397C5.64896 -0.829093 1.30775 1.77938 0.23964 6.06559C-0.829472 10.351 1.77905 14.692 6.064 15.7605ZM9.76801 4.84186C10.8764 5.2236 11.687 5.79585 11.5277 6.86034C11.4124 7.63958 10.9804 8.01683 10.4068 8.14908C11.1944 8.55907 11.5952 9.18781 11.2134 10.2778C10.7396 11.6315 9.61399 11.7458 8.11709 11.4625L7.7538 12.9183L6.87596 12.6995L7.23449 11.2633C7.00697 11.2068 6.77444 11.1468 6.53492 11.0818L6.17513 12.5248L5.29829 12.306L5.66158 10.8475C5.57962 10.8266 5.49714 10.805 5.41408 10.7834C5.28936 10.7509 5.16333 10.718 5.03576 10.686L3.89339 10.4013L4.32919 9.39656C4.32919 9.39656 4.97601 9.56856 4.96726 9.55581C5.21578 9.61731 5.32604 9.45531 5.36954 9.34731L5.94361 7.04608C5.96514 7.05126 5.98623 7.05654 6.00657 7.06164C6.0167 7.06418 6.02665 7.06667 6.03637 7.06908C6.00137 7.05508 5.96961 7.04608 5.94511 7.03983L6.35465 5.3971C6.3654 5.2106 6.30115 4.97535 5.94561 4.8866C5.95936 4.87735 5.30805 4.7281 5.30805 4.7281L5.54157 3.79061L6.75219 4.09286L6.75119 4.09737C6.93321 4.14262 7.12073 4.18561 7.31175 4.22911L7.67154 2.78763L8.54888 3.00637L8.19634 4.41961C8.43186 4.47336 8.66889 4.52761 8.89967 4.58511L9.2497 3.18112L10.1275 3.39987L9.76801 4.84186ZM6.99134 10.07C7.70762 10.2591 9.27309 10.6726 9.52198 9.67256C9.77701 8.65007 8.25876 8.30943 7.51792 8.14322C7.43514 8.12464 7.36206 8.10825 7.30225 8.09332L6.8202 10.0256C6.86932 10.0377 6.92689 10.053 6.99134 10.07ZM7.66677 7.24653C8.26396 7.40588 9.5666 7.75348 9.79351 6.84458C10.0252 5.91492 8.75916 5.63468 8.14084 5.49782C8.07129 5.48242 8.00993 5.46884 7.95982 5.45635L7.52277 7.20883C7.56405 7.21912 7.6125 7.23205 7.66677 7.24653Z" fill="#F7931A"/>
</svg>

<svg xmlns="http://www.w3.org/2000/svg" width="16" height="16" fill="none"><path fill="#F7931A" fill-rule="evenodd" d="M6.064 15.76A7.999 7.999 0 1 0 9.935.239a7.999 7.999 0 0 0-3.871 15.523M9.768 4.843c1.108.382 1.919.954 1.76 2.018-.116.78-.548 1.157-1.121 1.29.787.41 1.188 1.038.806 2.128-.473 1.354-1.599 1.468-3.096 1.185l-.363 1.455-.878-.218.358-1.437q-.34-.084-.7-.181l-.359 1.443-.877-.219.364-1.458-.248-.065-.378-.097-1.143-.285.436-1.004s.647.172.638.159c.249.061.359-.1.403-.209l.574-2.3.092.022a1 1 0 0 0-.09-.03l.409-1.642c.01-.186-.054-.422-.41-.51.014-.01-.637-.159-.637-.159l.234-.937 1.21.302v.004q.272.068.56.132l.36-1.441.877.218-.353 1.414q.356.08.704.165l.35-1.404.877.219zM6.991 10.07c.717.19 2.282.603 2.531-.397.255-1.023-1.263-1.364-2.004-1.53q-.125-.027-.216-.05l-.482 1.933zm.676-2.823c.597.159 1.9.506 2.127-.402.231-.93-1.035-1.21-1.653-1.347l-.181-.042-.437 1.753z" clip-rule="evenodd"/></svg>
